!!!COM: Prescott, Michael Francis Alexander
!!!CDT: b. 1928
!!!OTL: National Anthem, Fiji
!!!ENC: Davis, Matthew J.
!!Vocal Line Only
**kern
*clefG2
*k[b-e-]
*B-:
*M4/4
=1-
4.b-
8cc
4b-
4g
=2
4.f
8g
4f
4d
=3
4.f
8g
4f
4e-
=4
4d
2.f
=5
4.g
8a
4b-
4g
=6
4.b-
8f
4f
4b-
=7
4g
4cc
4cc
4dd
=8
1cc
=9
4.b-
8cc
4b-
4g
=10
4.f
8g
4f
4d
=11
4.f
8g
4f
4e-
=12
4d
2.f
=13
4.g
8a
4b-
4g
=14
4f
2b-
4ee-
=15
2dd
2cc
=16
2.b-
!Chorus
4f
=17
4b-
2b-
8.g
16f
=18
4b-
2b-
8.d
16e-
=19
4f
4f
4f
4f
=20
2.f
4f
=21
4a
2a
8.g
16f
=22
4b-
2dd
4b-
=23
4g
4cc
4cc
4dd
=24
4cc
4f
4b-
4cc
=25
4dd
2dd
8.cc
16b-
=26
4dd
2dd
8.cc
16b-
=27
4cc
4b-
4g
4b-
=28
4f
4f
4d
4e-
=29
4f
2b-
4ee-
=30
2dd-
2cc
=31
[2b-
=32
2.b-]
4r
!Repeat entire song once more from the beginning
==|!
*-
